icons/solid/duplicate.svg

<svg width="24" height="24" viewBox="0 0 24 24" fill="none" xmlns="http://www.w3.org/2000/svg">
<path fill-rule="evenodd" clip-rule="evenodd" d="M16 6C16 3.79086 14.2091 2 12 2H6C3.79086 2 2 3.79086 2 6V12C2 14.2091 3.79086 16 6 16H7V11.5C7 9.73704 7.74577 8.58693 8.70785 7.89423C9.64443 7.21989 10.7533 7 11.5 7H16V6ZM16.5 8H16H11.5C10.9133 8 10.0222 8.18011 9.29215 8.70577C8.58757 9.21307 8 10.063 8 11.5V16V16.5V18C8 20.2091 9.79086 22 12 22H18C20.2091 22 22 20.2091 22 18V12C22 9.79086 20.2091 8 18 8H16.5Z" fill="currentColor"/>
</svg>

<svg width="24" height="24" fill="none" xmlns="http://www.w3.org/2000/svg"><path fill-rule="evenodd" clip-rule="evenodd" d="M16 6a4 4 0 00-4-4H6a4 4 0 00-4 4v6a4 4 0 004 4h1v-4.5c0-1.763.746-2.913 1.708-3.606C9.644 7.22 10.753 7 11.5 7H16V6zm.5 2h-5c-.587 0-1.478.18-2.208.706C8.588 9.213 8 10.063 8 11.5V18a4 4 0 004 4h6a4 4 0 004-4v-6a4 4 0 00-4-4h-1.5z" fill="currentColor"/></svg>
